icons/archive.svg

<svg width="24" height="24" viewBox="0 0 24 24" fill="none" xmlns="http://www.w3.org/2000/svg">
<path d="M14 13H13V11C13 10.4477 12.5523 10 12 10C11.4477 10 11 10.4477 11 11V13H10C9.61559 13 9.26522 13.2203 9.0987 13.5668C8.93218 13.9133 8.979 14.3245 9.21913 14.6247L11.2191 17.1247C11.4089 17.3619 11.6962 17.5 12 17.5C12.3038 17.5 12.5911 17.3619 12.7809 17.1247L14.7809 14.6247C15.021 14.3245 15.0678 13.9133 14.9013 13.5668C14.7348 13.2203 14.3844 13 14 13Z" fill="#9AA1B4"/>
<path fill-rule="evenodd" clip-rule="evenodd" d="M8 2.5C6.74097 2.5 5.55542 3.09278 4.8 4.1L3.1 6.36667C2.71053 6.88595 2.5 7.51756 2.5 8.16667V17.5C2.5 19.7091 4.29086 21.5 6.5 21.5H17.5C19.7091 21.5 21.5 19.7091 21.5 17.5V8.16667C21.5 7.51756 21.2895 6.88596 20.9 6.36667L19.2 4.1C18.4446 3.09278 17.259 2.5 16 2.5H8ZM6.4 5.3C6.77771 4.79639 7.37049 4.5 8 4.5H16C16.6295 4.5 17.2223 4.79639 17.6 5.3L18.5 6.5H5.5L6.4 5.3ZM4.5 8.5V17.5C4.5 18.6046 5.39543 19.5 6.5 19.5H17.5C18.6046 19.5 19.5 18.6046 19.5 17.5V8.5H4.5Z" fill="#9AA1B4"/>
</svg>

<?xml version="1.0" encoding="utf-8"?>
<!-- Generator: Adobe Illustrator 22.1.0, SVG Export Plug-In . SVG Version: 6.00 Build 0)  -->
<svg version="1.1" id="Layer_1" xmlns="http://www.w3.org/2000/svg" xmlns:xlink="http://www.w3.org/1999/xlink" x="0px" y="0px"
	 viewBox="0 0 24 24" style="enable-background:new 0 0 24 24;" xml:space="preserve">
<style type="text/css">
	.st0{fill:#9AA1B4;}
</style>
<path class="st0" d="M14,13h-1v-2c0-0.6-0.4-1-1-1s-1,0.4-1,1v2h-1c-0.4,0-0.7,0.2-0.9,0.6c-0.2,0.3-0.1,0.8,0.1,1.1l2,2.5
	c0.2,0.2,0.5,0.4,0.8,0.4s0.6-0.1,0.8-0.4l2-2.5c0.2-0.3,0.3-0.7,0.1-1.1C14.7,13.2,14.4,13,14,13z"/>
<path class="st0" d="M20.9,6.4l-1.7-2.3c-0.8-1-1.9-1.6-3.2-1.6H8c-1.3,0-2.4,0.6-3.2,1.6L3.1,6.4C2.7,6.9,2.5,7.5,2.5,8.2v9.3
	c0,2.2,1.8,4,4,4h11c2.2,0,4-1.8,4-4V8.2C21.5,7.5,21.3,6.9,20.9,6.4z M6.4,5.3c0.4-0.5,1-0.8,1.6-0.8h8c0.6,0,1.2,0.3,1.6,0.8
	l0.9,1.2h-13L6.4,5.3z M19.5,17.5c0,1.1-0.9,2-2,2h-11c-1.1,0-2-0.9-2-2v-9h15V17.5z"/>
</svg>
